X:1
T:Lamentatio Jeremiae : Aleph
T:Gionanni Pierluigi da Palestrina
T:(Lectio I Feria V in Coena Domini)
T:Source : anonymous 1840 edition. Editor : André Vierendeels (15/05/17).
T:Notes : Original clefs : C1, C1, C3, C4 Original note values have been halved First publication  Roma Verovio 1588
T:Lamentatio Jeremiae : Aleph
T:©
T:©
T:©
T:©
T:©
C:Gionanni Pierluigi da Palestrina
Z:©
%%score [ 1 2 3 4 ]
L:1/8
Q:1/4=120
M:2/2
K:F
V:1 treble nm="Soprano 1" snm="S 1"
V:2 treble nm="Soprano 2" snm="S 2"
V:3 treble nm="Alto" snm="A"
V:4 treble-8 nm="Tenor" snm="T"
V:1
 c8- | c4 c4 | c8 | A4 A4 | d6 c2 | c8 | z4 c4- | c2 B2 B2 AG | A4 G4- | G8 | z4 c4 | c6 B2 | %12
w: In-|* ci-|pit|la- men-|ta- ti-|o|Je-|* re- mi- * *|* ae|_|Pro-|phe- *|
 A2 G2 F4 | G8 | !fermata!A8 | A8 | G4 F4 | G8 | F8 | z4 d4- | d4 c4- | c4 B4 | c8 | !fermata!c8 | %24
w: ||tae.|A-|||leph,|A-||||leph.|
 z8 | z4 B4- | B4 c4 | d8 | z4 d4- | d4 d4 | c4 c4 | B4 B4 | A4 d4- | d4 c2 c2- | c2 =BA B2 B2 | %35
w: |Quo-|* mo-|do|se-|* det|so- la|ci- vi-|tas ple-|* na po-|* * * * pu-|
 c4 z4 | z4 c4- | c4 c4 | c4 d4- | d2 c2 B4 | B4 A4 | c6 c2 | c4 d4- | d2 c2 B2 A2 | G4 G4 | %45
w: lo|fa-|* cta|est qua-|* si vi-|du- a|do- mi-|na Gen-||* ti-|
 F4 A4 | B4 c4 | d4 d4 | !fermata!c8 | c8 | B4 A4 | d4 c4 | B8 | A4 z4 | A4 B4 | G8 | c6 B2 | %57
w: um do-|mi- na|Gen- ti-|um:|Prin-|ceps pro-|vin- ci-|a-|rum,|fa- cta|est|sub tri-|
 A2 G2 F4 | c4 d4- | d2 c2 B2 A2 | G8 | !fermata!A8 |] %62
w: bu- * *|to, sub|_ tri- bu- to|_||
V:2
 A8- | A4 A4 | G8 | z2 c4 c2 | B6 A2 | A4 A4- | A2 G2 G4 | F8 | z4 c4- | c2 B2 B2 AG | A8 | %11
w: In|_ ci-|pit|la- men-|ta- ti-|o Je|_ re- mi-|ae,|Je-|* re- mi- * *||
 G4 c4- | c2 BA B4 | c8 | !fermata!c8 | c8- | c4 B4 | c8 | A8- | A4 z4 | A8 | G4 F4 | G8 | %23
w: ae Pro-|* * * phe-||tae.|A-|||leph,|_|A-|||
 !fermata!A8 | B8 | c4 d4- | d2 cB A4 | B8 | z4 A4- | A4 B4 | G4 A4 | d4 d4 | c4 B4- | B4 A4 | %34
w: leph.|Quo-|mo- do|_ _ _ _||se-|* det|so- la|ci- vi-|tas ple-|* num|
 G6 G2 | G4 z4 | z4 A4- | A4 A4 | G4 B4- | B2 c2 d4 | d4 c4 | A6 A2 | A4 B4- | B2 c2 d4 | c4 c4 | %45
w: po- pu-|lo|fa-|* cta|est qua-|* si vi-|du- a|do- mi-|na Gen-||* ti|
 A4 d4- | d2 d2 c4 | B4 B4 | !fermata!A8 | G8 | G4 F4 | B4 c4 | d8 | d4 z4 | d4 d4 | c4 c4- | %56
w: um do-|* mi- na|Gen- ti-|um:|Prin-|ceps pro-|vin- ci-|a-|rum,|fa- cta|est sub|
 c2 B2 A2 G2 | F4 c4 | A4 B4- | B2 c2 d4 | c8 | !fermata!c8 |] %62
w: _ tri- bu- *||to, sub|_ tri- bu-||to.|
V:3
 F8- | F4 F4 | E8 | F4 F4 | F6 F2 | F6 ED | C8 | z4 F4- | F2 E2 E2 DC | D8 | F4 F4- | F2 ED E4 | %12
w: In|_ ci-|pit|la- men-|ta- ti-|o _ _|_|Je-|* re- mi- * *||ae Pro-|* * * phe-|
 F3 E DE F2- | F2 ED E4 | !fermata!F8 | F8 | E4 D2 F2- | F2 ED E4 | F4 F4 | E4 D4 | E4 z2 F2- | %21
w: ||tae.|A-|||leph, A-||leph, A-|
 F2 E2 D2 F2- | F2 ED E4 | !fermata!F8 | z8 | z8 | z4 F4- | F4 G4 | A8 | F4 F4 | E4 F4 | F4 G4 | %32
w: ||leph.|||Quo-|* mo-|do|se- det|so- la|ci- vi-|
 E4 D3 E | F6 E2 | D6 D2 | E4 z4 | z4 F4- | F4 F4 | E4 F4- | F2 F2 F4 | G4 E4 | F6 F2 | F8 | %43
w: tas ple- *|* na|po- pu-|lo|fa-|* cta|est qua-|* si vi-|du- a|do- mi-|na|
 G4 F4- | F2 ED E2 E2 | F8- | F8- | F8- | !fermata!F8 | E8 | D4 D4 | D4 E4 | G8 | ^F4 z4 | ^F4 G4 | %55
w: Gen- *|* * * * ti-|um:|_|||Prin-|ceps pro-|vin- ci-|a-|rum,|fa- cta|
 E8- | E4 z4 | A6 G2 | F2 E2 D4 | G4 F4- | F2 ED E4 | !fermata!F8 |] %62
w: est|_|sub tri-|bu- * to,|sub tri-|* * * bu-|to.|
V:4
 F8- | F4 F4 | c8 | F4 F4 | B6 F2 | F4 f4- | f2 e2 e2 dc | d8 | c8 | G8 | F8 | c8 | d8 | c8 | %14
w: In-|* ci-|pit|la- men-|ta- ti-|o Je-|* re- mi- * *||ae|Pro-|phe-||||
 !fermata!F8 | F8 | c4 d4 | c8 | d8 | c4 B4 | A8 | c4 d4 | c8 | !fermata!F8 | z8 | z8 | z8 | B8 | %28
w: tae.|A-|||leph,|A- *|leph,|A- *||leph.||||Quo-|
 c4 d4 | d4 B4 | c4 F4 | B4 G4 | A4 B4- | B4 F4 | G6 G2 | c4 z4 | z4 F4- | F4 F4 | c4 B4- | %39
w: mo- do|se- det|so- la|ci- vi-|tas ple-|* na|po- pu-|lo|fa-|* cta|est qua-|
 B2 A2 B4 | G4 A4 | F6 F2 | F4 B4- | B4 B4 | c8 | d6 c2 | B4 A4 | B4 B4 | !fermata!F8 | c8 | %50
w: * si vi-|du- a|do- mi-|na Gen-|* ti-|um|do- mi-|na _|Gen- ti-|um:|Prin-|
 G4 d4 | B4 A4 | G8 | d4 z4 | d4 G4 | c2 c4 B2 | A2 G2 F4- | F8- | F4 B4 | G2 A2 B4 | c8 | %61
w: ceps pro-|vin- ci-|a-|rum,|fa- cta|est sub tri-|bu- * *||* to,|sub tri- bu-||
 !fermata!F8 |] %62
w: to.|

